assets/images/avatar/Avatar 22.svg

<svg fill="none" height="128" viewBox="0 0 128 128" width="128" xmlns="http://www.w3.org/2000/svg" xmlns:xlink="http://www.w3.org/1999/xlink"><mask id="a" height="111" maskUnits="userSpaceOnUse" width="108" x="10" y="8"><path clip-rule="evenodd" d="m62.4166 9.14512c17.6503-.69861 37.8774-1.40613 48.7984 12.46538 10.878 13.8154 4.796 33.0803.476 50.1197-4.137 16.3133-8.929 33.7238-23.7578 41.7038-15.4767 8.329-34.7301 6.585-50.0873-1.963-14.3552-7.989-21.1601-23.7085-24.8029-39.7181-3.63783-15.9876-4.96244-33.5841 5.1935-46.4622 10.2105-12.9474 27.6952-15.49309 44.1801-16.14558z" fill="#eff6f7" fill-rule="evenodd"/></mask><g mask="url(#a)"><path clip-rule="evenodd" d="m62.4166 9.14512c17.6503-.69861 37.8774-1.40613 48.7984 12.46538 10.878 13.8154 4.796 33.0803.476 50.1197-4.137 16.3133-8.929 33.7238-23.7578 41.7038-15.4767 8.329-34.7301 6.585-50.0873-1.963-14.3552-7.989-21.1601-23.7085-24.8029-39.7181-3.63783-15.9876-4.96244-33.5841 5.1935-46.4622 10.2105-12.9474 27.6952-15.49309 44.1801-16.14558z" fill="#eff6f7" fill-rule="evenodd"/><path d="m34.8313 53.5128c.4784-.9143.9721-1.789 1.4476-2.6819 1.667-3.1117 2.5295-5.9459 3.392-9.3136 1.6366-6.4 3.0476-13.6442 7.2929-18.8952 2.7886-3.459 6.4153-4.6659 8.1524-3.9101 2.5173-5.9886 9.3806-5.5071 15.0309-5.0621 7.7074.6095 16.0335 5.4156 21.0773 14.0526 3.9436 6.7444 6.3482 17.3257 4.6842 28.3916-1.3532 9.0149-1.2191 18.2857 4.3824 19.6206-5.7416 10.5813-19.8369 15.8232-34.0175 15.0644-10.9318-.96-19.3981-3.0995-24.4541-6.8724-7.5093-5.6046-11.8857-15.0309-9.5725-24.1676.5516-2.2035 1.5268-4.2362 2.5844-6.2263z" fill="#dee9ee"/><path d="m53.5894 63.7802c0 8.4602 4.9768 15.5429-2.5569 22.5097-4.3642 4.032-17.5025 5.3913-23.3997 8.4145-8.0579 4.1295-11.2762 13.5986-12.3916 25.3836h102.0618c-2.344-9.78-3.962-13.797-6.22-18.459-4.898-10.0576-21.2178-8.6617-28.9526-16.3722-3.3067-3.2945-2.9501-12.1661-1.5238-24.7802 1.2586-10.9136-27.0172-11.3951-27.0172 3.3036z" fill="#e7baef"/><path d="m15.2382 120.091h102.0678c-2.344-9.789-3.962-13.8-6.223-18.462-4.535-9.314-18.8437-8.805-27.0936-14.8058-5.3486 10.8861-10.176 17.0668-15.4667 20.6048-7.9238-5.339-13.0072-12.7602-17.7889-20.8913-4.6293 3.8492-17.341 5.2206-23.104 8.1677-8.061 4.1295-11.2793 13.5986-12.3916 25.3866z" fill="#b671c6"/><path d="m52.5319 84.7021c1.3108-1.545 2.1749-3.4186 2.499-5.4187.1703-1.1089.2122-2.2338.125-3.3524-.0488-.7527-.1372-1.5238-.253-2.2766-.0579-.3809-.1158-.7436-.1768-1.1093 0-.0731-.0243-.1432-.0396-.2164-.0426-.256-.0883-.515-.1371-.7771-.3048-1.6579-.6095-3.3524-.8107-5.123 8.253-.4968 18.1577-.6461 26.3894-1.3562-.6096 6.272-.7985 11.3798-.1799 15.0582-6.3116 6.4793-20.6598 7.6831-27.4163 4.5715z" fill="#db9fe6"/><path d="m36.2667 120.091c1.6823-8.926 1.7463-19.523 2.2309-28.8396 2.6453-.6948 5.2968-1.414 7.5672-2.2613.8168 7.9848 1.3044 16.5149 1.3928 24.6489 4.5714.5 11.4194 1.661 21.4065 1.219 10.5417-.448 18.6301-1.463 18.6301-1.463-.0793-8.262.0548-16.2312.963-24.1093 1.1642.512 2.3741.9753 3.6084 1.405l.061.0213c.5638.1951 1.1276.3901 1.6944.576l.6461.2133 1.3806.448c.6247 8.8227 1.0209 19.3947 2.7032 28.1267h-62.2842z" fill="#6b7299"/><path d="m88.0488 51.7329c-.7863 2.7246 1.8285 5.8362-1.1703 13.6503-2.9044 7.5855-10.7398 15.4484-18.5448 14.4-4.8-.6461-13.6259-3.072-17.8133-16.8137-2.1333-7.0095-1.5512-15.3448-1.155-17.5756.5729-3.2549 2.1546-5.9612 3.0811-8.7132 1.9962-5.9428 4.6842-9.9444 9.4476-10.7154 4.9646-.8015 11.8857-.9143 18.877 1.7707 5.9459 2.2705 10.8861 11.4804 7.2777 23.9969z" fill="#e7baef"/><path d="m60.9767 22.2015c7.4271-1.8286 18.8953-.576 25.8256 5.9794 7.3386 6.9364 7.5489 22.0374 1.8468 27.1238.8838-20.0106-22.0129-12.6811-28.2453-25.9535 0 0 .3048 3.0964-4.0168 7.6648-2.7824 2.944-5.1809 6.4579-6.0221 10.4076-.5089 2.3497-.3047 4.8092-.7344 7.1772s-1.7159 4.8396-4.0077 5.5801c-2.9287-13.0468.3475-32.5912 15.3539-37.9794z" fill="#dee9ee"/><g fill="#e7baef"><path d="m50.0236 49.0206c-.4266-.9143-3.2061-5.6655-5.2876-3.3768-1.219 1.3318-.3048 4.6537 1.152 7.683 1.3531 2.81 4.1631 5.1383 4.7421 5.2602.5791.1219-.6065-9.5664-.6065-9.5664z"/><path d="m86.4792 55.1615c.2001-1.3838.7828-2.6842 1.6823-3.7547 1.155-1.3561 2.7672-2.5843 4.0015-1.1123 1.1581 1.3775.1158 4.6628-1.4598 7.619-1.4598 2.7429-4.3642 4.9677-4.9463 5.0682-.4236.0854.3017-5.056.7223-7.8202z"/></g></g></svg>

<svg width="128" height="128" viewBox="0 0 128 128" fill="none" xmlns="http://www.w3.org/2000/svg">
<mask id="mask0_457_1635" style="mask-type:alpha" maskUnits="userSpaceOnUse" x="10" y="8" width="108" height="111">
<path fill-rule="evenodd" clip-rule="evenodd" d="M62.4166 9.14512C80.0669 8.44651 100.294 7.73899 111.215 21.6105C122.093 35.4259 116.011 54.6908 111.691 71.7302C107.554 88.0435 102.762 105.454 87.9332 113.434C72.4565 121.763 53.2031 120.019 37.8459 111.471C23.4907 103.482 16.6858 87.7625 13.043 71.7529C9.40517 55.7653 8.08056 38.1688 18.2365 25.2907C28.447 12.3433 45.9317 9.79761 62.4166 9.14512Z" fill="#EFF6F7"/>
</mask>
<g mask="url(#mask0_457_1635)">
<path fill-rule="evenodd" clip-rule="evenodd" d="M62.4166 9.14512C80.0669 8.44651 100.294 7.73899 111.215 21.6105C122.093 35.4259 116.011 54.6908 111.691 71.7302C107.554 88.0435 102.762 105.454 87.9332 113.434C72.4565 121.763 53.2031 120.019 37.8459 111.471C23.4907 103.482 16.6858 87.7625 13.043 71.7529C9.40517 55.7653 8.08056 38.1688 18.2365 25.2907C28.447 12.3433 45.9317 9.79761 62.4166 9.14512Z" fill="#EFF6F7"/>
<path d="M34.8313 53.5128C35.3097 52.5985 35.8034 51.7238 36.2789 50.8309C37.9459 47.7192 38.8084 44.885 39.6709 41.5173C41.3075 35.1173 42.7185 27.8731 46.9638 22.6221C49.7524 19.1631 53.3791 17.9562 55.1162 18.712C57.6335 12.7234 64.4968 13.2049 70.1471 13.6499C77.8545 14.2594 86.1806 19.0655 91.2244 27.7025C95.168 34.4469 97.5726 45.0282 95.9086 56.0941C94.5554 65.109 94.6895 74.3798 100.291 75.7147C94.5494 86.296 80.4541 91.5379 66.2735 90.7791C55.3417 89.8191 46.8754 87.6796 41.8194 83.9067C34.3101 78.3021 29.9337 68.8758 32.2469 59.7391C32.7985 57.5356 33.7737 55.5029 34.8313 53.5128Z" fill="#DEE9EE"/>
<path d="M53.5894 63.7802C53.5894 72.2404 58.5662 79.3231 51.0325 86.2899C46.6683 90.3219 33.53 91.6812 27.6328 94.7044C19.5749 98.8339 16.3566 108.303 15.2412 120.088H117.303C114.959 110.308 113.341 106.291 111.083 101.629C106.185 91.5714 89.8652 92.9673 82.1304 85.2568C78.8237 81.9623 79.1803 73.0907 80.6066 60.4766C81.8652 49.563 53.5894 49.0815 53.5894 63.7802Z" fill="#E7BAEF"/>
<path d="M15.2382 120.091H117.306C114.962 110.302 113.344 106.291 111.083 101.629C106.548 92.315 92.2393 92.824 83.9894 86.8232C78.6408 97.7093 73.8134 103.89 68.5227 107.428C60.5989 102.089 55.5155 94.6678 50.7338 86.5367C46.1045 90.3859 33.3928 91.7573 27.6298 94.7044C19.5688 98.8339 16.3505 108.303 15.2382 120.091Z" fill="#B671C6"/>
<path d="M52.5319 84.7021C53.8427 83.1571 54.7068 81.2835 55.0309 79.2834C55.2012 78.1745 55.2431 77.0496 55.1559 75.931C55.1071 75.1783 55.0187 74.4072 54.9029 73.6544C54.845 73.2735 54.7871 72.9108 54.7261 72.5451C54.7261 72.472 54.7018 72.4019 54.6865 72.3287C54.6439 72.0727 54.5982 71.8137 54.5494 71.5516C54.2446 69.8937 53.9399 68.1992 53.7387 66.4286C61.9917 65.9318 71.8964 65.7825 80.1281 65.0724C79.5185 71.3444 79.3296 76.4522 79.9482 80.1306C73.6366 86.6099 59.2884 87.8137 52.5319 84.7021Z" fill="#DB9FE6"/>
<path d="M36.2667 120.091C37.949 111.165 38.013 100.568 38.4976 91.2514C41.1429 90.5566 43.7944 89.8374 46.0648 88.9901C46.8816 96.9749 47.3692 105.505 47.4576 113.639C52.029 114.139 58.877 115.3 68.8641 114.858C79.4058 114.41 87.4942 113.395 87.4942 113.395C87.4149 105.133 87.549 97.1638 88.4572 89.2857C89.6214 89.7977 90.8313 90.261 92.0656 90.6907L92.1266 90.712C92.6904 90.9071 93.2542 91.1021 93.821 91.288L94.4671 91.5013L95.8477 91.9493C96.4724 100.772 96.8686 111.344 98.5509 120.076H36.2667V120.091Z" fill="#6B7299"/>
<path d="M88.0488 51.7329C87.2625 54.4575 89.8773 57.5691 86.8785 65.3832C83.9741 72.9687 76.1387 80.8316 68.3337 79.7832C63.5337 79.1371 54.7078 76.7112 50.5204 62.9695C48.3871 55.96 48.9692 47.6247 49.3654 45.3939C49.9383 42.139 51.52 39.4327 52.4465 36.6807C54.4427 30.7379 57.1307 26.7363 61.8941 25.9653C66.8587 25.1638 73.7798 25.051 80.7711 27.736C86.717 30.0065 91.6572 39.2164 88.0488 51.7329Z" fill="#E7BAEF"/>
<path d="M60.9767 22.2015C68.4038 20.3729 79.872 21.6255 86.8023 28.1809C94.1409 35.1173 94.3512 50.2183 88.6491 55.3047C89.5329 35.2941 66.6362 42.6236 60.4038 29.3512C60.4038 29.3512 60.7086 32.4476 56.387 37.016C53.6046 39.96 51.2061 43.4739 50.3649 47.4236C49.856 49.7733 50.0602 52.2328 49.6305 54.6008C49.2008 56.9688 47.9146 59.4404 45.6228 60.1809C42.6941 47.1341 45.9703 27.5897 60.9767 22.2015Z" fill="#DEE9EE"/>
<path d="M50.0236 49.0206C49.597 48.1063 46.8175 43.3551 44.736 45.6438C43.517 46.9756 44.4312 50.2975 45.888 53.3268C47.2411 56.1368 50.0511 58.4651 50.6301 58.587C51.2092 58.7089 50.0236 49.0206 50.0236 49.0206Z" fill="#E7BAEF"/>
<path d="M86.4792 55.1615C86.6793 53.7777 87.262 52.4773 88.1615 51.4068C89.3165 50.0507 90.9287 48.8225 92.163 50.2945C93.3211 51.672 92.2788 54.9573 90.7032 57.9135C89.2434 60.6564 86.339 62.8812 85.7569 62.9817C85.3333 63.0671 86.0586 57.9257 86.4792 55.1615Z" fill="#E7BAEF"/>
</g>
</svg>
